X:1557
T:Blackbird, The
R:set dance
N:An unusual version. The most common version is #8
D:Bothy Band: Out of the Wind, into the Sun
Z:id:hn-setdance-6
M:C|
K:Dmix
GA|B2=cB A2B^c|d2AG F2DE|FGAF G=cAG|F2D2 D2:|
|:FG|Add^c d2eg|fded =cAG2|Add^c dfag|f2d2 d2 (3gfe|
d=cAF G2Ad|dAAG F2DE|FGAF G=cAG|F2D2 D2:|


